X:1
T:Title
%%score ( 1 2 ) ( 3 4 )
L:1/8
Q:1/4=77
M:2/4
K:Bb
V:1 treble nm="Grand Piano, Soprano"
V:2 treble 
V:3 bass nm="Choir Pad, O, Be Glad, ye Children"
V:4 bass 
V:1
 [DB]/[Ec]/[Fd] [DB][EG] | [EB] [DF]2 [DB] | [CA]/[DB]/[Ec] [EF][Fd] | [Ec] [DB]3 | %4
w: By~William~Fiske~Sherwin * * * *||||
 [DB]/[Ec]/[Fd] [DB][EG] | [EB] [DF]2 [DB] | [Fc]/[Fd]/[Fc] [GB][FA] | [=EG] F3 | %8
w: ||||
 z [FB]- [FB]/[FB]/[Fc] | [Fc] [Fd]2 [DB]- | [DB][Ee] [Fd][Gc] | [GB]A cF- | %12
w: ||||
 F[FB]- [FB]/[FB]/[Fc] | [Fd] [Ee]2 [Gd] | [Gc][EA] [DG]/[DA]/[Ec] | [Fd] [DB]3- | [DB]4 |] %17
w: |||||
V:2
 x4 | x4 | x4 | x4 | x4 | x4 | x4 | x4 | x4 | x4 | x4 | z .F3 | x4 | x4 | x4 | x4 | x4 |] %17
V:3
 [B,,B,]/[B,,B,]/[B,,B,] [B,,B,][B,,B,] | [B,,G,] [B,,B,]2 [B,,F,] | F,/F,/[F,A,] [F,A,][F,B,] | %3
 [F,A,] [B,,B,]3 | [B,,F,]/[B,,F,]/[B,,B,] [B,,B,][E,B,] | [E,G,] [B,,B,]2 [B,,F,] | %6
 [A,,F,]/[B,,F,]/[C,A,] [C,C][C,C] | [C,B,] [F,A,]3 | z [D,B,]- [D,B,]/[D,B,]/[F,A,] | %9
 [F,A,] B,2 [B,,F,]- | [B,,F,][C,A,] [D,B,][E,C] | [=E,C] [F,C]2 [F,A,]- | %12
 [F,A,][B,D]- [B,D]/[B,D]/[A,C] | [_A,B,] [G,B,]2 [E,B,] | [E,E][F,D] C/B,/[F,A,] | %15
 [F,A,] [B,,B,]3- | [B,,B,]4 |] %17
V:4
 x4 | x4 | x4 | x4 | x4 | x4 | x4 | x4 | x4 | x4 | x4 | x4 | x4 | x4 | z2 .F,2 | x4 | x4 |] %17

